packages/product-components/src/images/networks/ltc.svg

<svg width="32" height="32" viewBox="0 0 32 32" fill="none" xmlns="http://www.w3.org/2000/svg">
<style>
@media (prefers-color-scheme: dark) {
    .background {
        fill: #F6F6F6;
    }
    .foreground {
        fill: #1F1F1F;
    }
}
</style>
<path class="background" d="M0 8C0 3.58172 3.58172 0 8 0H24C28.4183 0 32 3.58172 32 8V24C32 28.4183 28.4183 32 24 32H8C3.58172 32 0 28.4183 0 24V8Z" fill="#1F1F1F"/>
<path class="foreground" d="M15.9345 16.9161L14.6169 21.362H21.665C21.721 21.3622 21.7763 21.3753 21.8264 21.4005C21.8764 21.4256 21.92 21.4621 21.9536 21.507C21.9872 21.5518 22.0099 21.6039 22.0199 21.659C22.0299 21.7142 22.0269 21.7709 22.0112 21.8247L21.3984 23.9358C21.3691 24.0367 21.3079 24.1253 21.2238 24.1883C21.1398 24.2513 21.0376 24.2853 20.9326 24.2851H10.1674L11.9876 18.1387L9.9743 18.7515L10.4186 17.3145L12.435 16.7017L14.9907 8.06725C15.0188 7.96607 15.0792 7.87686 15.1628 7.81324C15.2463 7.74961 15.3484 7.71507 15.4534 7.71489H18.1807C18.2367 7.71469 18.292 7.72748 18.3421 7.75226C18.3923 7.77703 18.4361 7.81312 18.4699 7.85767C18.5038 7.90222 18.5269 7.95403 18.5373 8.009C18.5477 8.06398 18.5453 8.12063 18.5301 8.17449L16.385 15.4761L18.3983 14.8632L17.9662 16.3248L15.9345 16.9161Z" fill="#F6F6F6"/>
</svg>

<svg xmlns="http://www.w3.org/2000/svg" width="32" height="32" viewBox="0 0 32 32" fill="none">
    <path class="bg" fill="#1F1F1F" d="M0 8a8 8 0 0 1 8-8h16a8 8 0 0 1 8 8v16a8 8 0 0 1-8 8H8a8 8 0 0 1-8-8z"/>
    <path class="fg" fill="#F6F6F6" d="m15.935 16.916-1.318 4.446h7.048a.362.362 0 0 1 .346.463l-.613 2.11a.484.484 0 0 1-.465.35H10.167l1.82-6.146-2.013.613.445-1.437 2.016-.613 2.556-8.635a.48.48 0 0 1 .462-.352h2.728a.36.36 0 0 1 .35.46l-2.146 7.301 2.013-.613-.432 1.462z"/>
</svg>
